svgs/sharp-light/tv-music.svg

<svg xmlns="http://www.w3.org/2000/svg" viewBox="0 0 640 512"><!--! Font Awesome Pro 6.6.0 by @fontawesome - https://fontawesome.com License - https://fontawesome.com/license (Commercial License) Copyright 2024 Fonticons, Inc. --><path d="M608 32l0 384L32 416 32 32l576 0zM32 0L0 0 0 32 0 416l0 32 32 0 576 0 32 0 0-32 0-384 0-32L608 0 32 0zM96 480l0 32 16 0 416 0 16 0 0-32-16 0-416 0-16 0zM416 112l0-23.1L394.4 97l-128 48L256 148.9l0 11.1 0 90.5c-5-1.6-10.4-2.5-16-2.5c-26.5 0-48 19.7-48 44s21.5 44 48 44s48-19.7 48-44c0-.8 0-1.6-.1-2.5c0-.5 .1-1 .1-1.5l0-116.9 96-36 0 83.4c-5-1.6-10.4-2.5-16-2.5c-26.5 0-48 19.7-48 44s21.5 44 48 44s48-19.7 48-44c0-.8 0-1.6-.1-2.5c0-.5 .1-1 .1-1.5l0-144zM256 292c0 4.1-4.5 12-16 12s-16-7.9-16-12s4.5-12 16-12s16 7.9 16 12zm112-20c-11.5 0-16-7.9-16-12s4.5-12 16-12s16 7.9 16 12s-4.5 12-16 12z"/></svg>

<svg xmlns="http://www.w3.org/2000/svg" viewBox="0 0 640 512"><!--! Font Awesome Pro 6.4.0 by @fontawesome - https://fontawesome.com License - https://fontawesome.com/license (Commercial License) Copyright 2023 Fonticons, Inc. --><path d="M608 32V416H32V32H608zM32 0H0V32 416v32H32 608h32V416 32 0H608 32zM96 480v32h16H528h16V480H528 112 96zM416 112V88.9L394.4 97l-128 48L256 148.9V160v90.5c-5-1.6-10.4-2.5-16-2.5c-26.5 0-48 19.7-48 44s21.5 44 48 44s48-19.7 48-44c0-.8 0-1.6-.1-2.5c0-.5 .1-1 .1-1.5V171.1l96-36v83.4c-5-1.6-10.4-2.5-16-2.5c-26.5 0-48 19.7-48 44s21.5 44 48 44s48-19.7 48-44c0-.8 0-1.6-.1-2.5c0-.5 .1-1 .1-1.5V112zM256 292c0 4.1-4.5 12-16 12s-16-7.9-16-12s4.5-12 16-12s16 7.9 16 12zm112-20c-11.5 0-16-7.9-16-12s4.5-12 16-12s16 7.9 16 12s-4.5 12-16 12z"/></svg>
